!!!SOCIAL_FUNCTION:	war songs
!!!PDT:	1929
!!!OTL: No_131_Help_Us_Locate_Our_Enemies.krn
!!!REG: Southwest
!!!LANG: Non-Tone
!!!LING_GROUP: Uto-Aztecan
**kern
*staff1
=1-
*clefF4
*k[f#c#g#d#a#]
*M3/4
4.e\
8d#\
16e\LK
8.d#\J
=2
8d#\L
8B\J
4B\
8c#\L
8B\J
=3||
*M2/4
8A#\L
[8G#\J
4G#\]
=4||
*M3/8
4A#\
16r
16d#\
=5||
*M3/4
2d#\
4B\
=6
2B\
8A#\L
8G#\J
=7||
*M2/4
2G#\
=8
16A#\LK
8.G#\J
16A#\LK
8.G#\J
=9||
*M3/4
8G#\L
8G#\J
4G#\
8A#\L
8G#\J
=10||
*M2/4
2G#\
=11
[2G#\
=12||
*M3/8
4G#\]
8r
==:|!
*-
